public/svg/logo.svg

<svg xmlns="http://www.w3.org/2000/svg" viewBox="88 106 191.26 108"><g fill="#fff"><path d="M88 106l27.076 65.496V214H143.2v-42.504L170.74 106h-30.858l-10.588 37.664h-.302L118.403 106H88zm119.832 87.73h-7.866V167.4h7.866q3.933 0 6.958 3.327 3.025 3.328 3.025 9.68 0 6.807-3.025 10.06-3.025 3.252-6.958 3.252zm-1.06-45.377h-6.807V126.27h6.807q4.387 0 6.656 3.328 2.268 3.327 2.268 7.865 0 4.387-2.268 7.64-2.27 3.252-6.656 3.252z"/><path d="M214.336 106h-42.504v108h42.504q8.773 0 14.975-2.345 6.202-2.344 10.06-6.58 3.857-4.236 5.672-10.135 1.815-5.9 1.815-12.857 0-4.235-1.134-8.395-1.135-4.16-3.555-7.64-2.42-3.48-6.202-5.823-3.78-2.345-9.075-2.798v-.303q4.538-.908 7.714-3.176 3.177-2.27 5.22-5.52 2.042-3.253 3.025-7.26.983-4.008.983-8.244 0-12.252-7.185-19.588-7.185-7.336-22.31-7.336z"/></g><path d="M279.26 184.05h-25.41V214h25.41v-29.95z" fill="#706fd3"/></svg>

<svg xmlns="http://www.w3.org/2000/svg" xmlns:xlink="http://www.w3.org/1999/xlink" style="isolation:isolate" viewBox="88 106 191.26 108"><g><path d=" M 88 106 L 115.076 171.496 L 115.076 214 L 143.21 214 L 143.21 171.496 L 170.74 106 L 139.882 106 L 129.294 143.664 L 128.992 143.664 L 118.403 106 L 88 106 Z " fill="rgb(255,255,255)"/><path d=" M 207.832 193.731 L 199.966 193.731 L 199.966 167.412 L 207.832 167.412 L 207.832 167.412 Q 211.765 167.412 214.79 170.739 L 214.79 170.739 L 214.79 170.739 Q 217.815 174.067 217.815 180.42 L 217.815 180.42 L 217.815 180.42 Q 217.815 187.227 214.79 190.479 L 214.79 190.479 L 214.79 190.479 Q 211.765 193.731 207.832 193.731 L 207.832 193.731 Z " fill="rgb(255,255,255)"/><path d=" M 206.773 148.353 L 199.966 148.353 L 199.966 126.269 L 206.773 126.269 L 206.773 126.269 Q 211.16 126.269 213.429 129.597 L 213.429 129.597 L 213.429 129.597 Q 215.697 132.924 215.697 137.462 L 215.697 137.462 L 215.697 137.462 Q 215.697 141.849 213.429 145.101 L 213.429 145.101 L 213.429 145.101 Q 211.16 148.353 206.773 148.353 L 206.773 148.353 Z " fill="rgb(255,255,255)"/><path d=" M 214.336 106 L 171.832 106 L 171.832 214 L 214.336 214 L 214.336 214 Q 223.109 214 229.311 211.655 L 229.311 211.655 L 229.311 211.655 Q 235.513 209.311 239.37 205.076 L 239.37 205.076 L 239.37 205.076 Q 243.227 200.84 245.042 194.941 L 245.042 194.941 L 245.042 194.941 Q 246.857 189.042 246.857 182.084 L 246.857 182.084 L 246.857 182.084 Q 246.857 177.849 245.723 173.689 L 245.723 173.689 L 245.723 173.689 Q 244.588 169.529 242.168 166.05 L 242.168 166.05 L 242.168 166.05 Q 239.748 162.571 235.966 160.227 L 235.966 160.227 L 235.966 160.227 Q 232.185 157.882 226.891 157.429 L 226.891 157.429 L 226.891 157.126 L 226.891 157.126 Q 231.429 156.218 234.605 153.95 L 234.605 153.95 L 234.605 153.95 Q 237.782 151.681 239.824 148.429 L 239.824 148.429 L 239.824 148.429 Q 241.866 145.176 242.849 141.168 L 242.849 141.168 L 242.849 141.168 Q 243.832 137.16 243.832 132.924 L 243.832 132.924 L 243.832 132.924 Q 243.832 120.672 236.647 113.336 L 236.647 113.336 L 236.647 113.336 Q 229.462 106 214.336 106 L 214.336 106 Z " fill="rgb(255,255,255)"/><path d=" M 279.26 184.05 L 253.849 184.05 L 253.849 214 L 279.26 214 L 279.26 184.05 Z " fill="rgb(112,111,211)"/></g></svg>
